X:45
T: King of the Pipes
T: R\'i na bP\'iob
S: B.Breathnach:"Ceol Rince na hEireann" III/35
Z: B.Black
L: 1/8
M: 6/8
R: jig
K: Bm
dB|: AFF dFF|AGB AFD|AFF dFE|DFA Bcd|
AFF dFF|AGB AFD|E3 AFE|1 DFA Bcd :|2 DFA B3 ||
ABc d2A|dfa agf|geg fdB|AFA Bcd|
ABc d2A dfa agf|g3 fdB|1 AFA B3 :|2 AFA B2 ||
A|Bbb Baa|f3 fdB|Bbb Baa|ecA B2A|
Bbb Baa|fg2 fdB|AFd AFE|DFA B2 :|
